X: 10954
T: Drummond Lasses, The
R: reel
M: 4/4
K: Gmajor
|:G2Bc d2BG|G2AG EAAB|G2Bc d2Bd|cBAG EDDE:|
|:g2ed cdef|gfed eaa2|gage d2dB|cBAG EGG2:|

